X:200
T:Down In The Swamp
C:Bela Fleck
N:From the CD 'Drive" Transcribed by Mike Stangeland
L:1/8
Q:1/4=200
M:4/4
K:E
z6 AB |: "E"=dA Bd [ed]e z=g | "A"e=d B=G [A2A2] AB | "E"=dA Bd eg ab | "A"ag e=d =c^c AB | 
"E"=dA Bd [ed]e z=g | "A"e=d B=G [A2A2] AB | "E"=dB eB (3"B7"dBA {=G}^GB |1 A"E"G E4 AB :|2 A"E"G E4 =C^C | 
|: "D"=DE DC B,2 =G^G | "A"AB AG EG AB | "E"=dA Bd [e3e3]f | {d}"B7"e=d B4 =C^C | 
"D"=DE DC B,2 FA | "A"AB AG EG AB | "E"=dB eB (3"B7"dBA {=G}^GB |1 A"E"G E4 =C^C :|2 A"E"G E6 | 
 

